!!!OTL: An die Freude.
!!!OTL-incipit: FREUDE SCHOENER GOETTERFUNKEN
!!!COM: J. Fr. Reichardt
!!!ARE: Europa, Mitteleuropa, Deutschland
!!!SCT: F0759
!!!TXL: @@DE
!!!YEM: Copyright 1995, estate of Helmut Schaffrath.
**kern	**text
*ICvox	*
*clefG2	*
*M4/4	*
*met(c)	*
*k[]	*
*C:	*
!LO:TX:a:t=Feierlich froh.	!
!LO:TX:a:t=P:only the highest voice encoded:problem	!
{4cc/	1._Freude,
4g	.
=1	=1
4.ee/	ſchö-
8ee/	-ner
8ee/L	Göt-
8ffJ	.
8dd/L	-ter-
8bJ	.
=2	=2
4cc/	-fun-
4g}	-ken,
{4.gg/	Tochter
8ff/	.
=3	=3
8ff/L	aus
8eeJ	.
8dd/L	E-
8ccJ	.
4ff/	-ly-
4ee/	-ſi-
=4	=4
2dd/}	-um!
{4cc/	Wir
4g	be-
=5	=5
4.ee/	-tre-
8ee/	-ten
8gg/L	Wonne-
8ffJ	.
8dd/L	.
8bJ	.
=6	=6
8ddqq	.
4cc/	-trun-
4g}	-ken,
{4.gg/	Himmli-
8ff/	.
=7	=7
8ff/L	-ſche,
8eeJ	.
8dd/L	dein
8ccJ	.
8ggqq	.
4ff/	Hei-
4ee/	-lig-
=8	=8
2dd/}	-thum.
{4.dd/	Bei-
8cc/	-ne
=9	=9
8b/L	Ʒau-
8ggJ	.
8ff#/L	-ber
8eeJ	.
4.dd/	bin-
8cc/	-den
=10	=10
4cc/	wie-
4b/}	-der,
{4.ee/	was
8dd/	der
=11	=11
8dd/L	Mo-
8ccJ	.
8b/L	-de
8aJ	.
4.dd/	Schwert
8f#	ge-
=12	=12
2g}	-theilt;
{4a	Bett-
4b/	-ler
=13	=13
4cc/	wer-
4dd/	-den
4.ee/	Für-
8ff/	-ſten-
=14	=14
4ee/	-brü-
4dd/}	-der,
{4.ff/	wo
8ee/	dein
=15	=15
8eeqq	.
4dd/	ſanf-
4cc/	-ter
8dd/L	Flü-
8ffJ	.
8g/L	-gel
8bJ	.
=16	=16
2cc/}	weilt.
!LO:TX:a:t=Alle.	!
{4.cc/	Seid
8g	umſchlungen
=17	=17
4.ee/	.
8ee/	.
8ee/L	Mil-
8ffJ	.
8dd/L	-li-
8bJ	.
=18	=18
4cc/	-o-
4g}	-nen!
{4.gg/	die-
8ff/	-ſen
=19	=19
8ff/L	Kuß
8eeJ	.
8dd/L	der
8ccJ	.
4ff/	ganʒen
4ee/	.
=20	=20
2dd/}	Welt!
{4.aa/	Brüder,
8gg/	.
=21	=21
4ff/	ü-
4cc/	-ber'm
4ff/	Sternen-
4gg/	.
=22	=22
2aa/}	-ʒelt
{4.gg/	muß
8ff/	ein
=23	=23
8ff/L	gu-
8eeJ	.
8dd/L	-ter
8ccJ	.
8dd/L	Va-
8ffJ	.
8g/L	-ter
8bJ	.
=24	=24
4cc/	woh-
4c}	-nen.
==	==
!!!AGN: Geselligkeits -, Bundes - Lied
!!!ONB: ESAC (Essen Associative Code) Database: FINK
!!!AMT: simple quadruple
!!!AIN: vox
!!!EED: Helmut Schaffrath
!!!EEV: 1.0
!!Text: Fr. Schiller
!!!GTL: Liedertafel- und Gesellschaftslieder
!!!source: Musikalischer Hausschatz der Deutschen. Eine Sammlung von über 1000 Liedern und Gesängen mit Singstimmen und Klavierbegleitung. Leipzig, Litterarisches Verlags-Haus.
!!!page: 521
!!!URL-scan: https://www.digitale-sammlungen.de/en/view/bsb11144622?page=472
!!!ENC: Anna Maria Matuszewska
!!!EEV: 2024/08/06
*-	*-